img/logotype/device-logo.svg

<svg width="145" height="37" viewBox="0 0 145 37" fill="none" xmlns="http://www.w3.org/2000/svg">
<g clip-path="url(#clip0_24_616)">
<path d="M27.2 0.356934V35.6569H19.6V33.2569C17.9 35.1569 15.5 36.3569 12.1 36.3569C5.5 36.3569 0 30.5569 0 23.0569C0 15.5569 5.5 9.75693 12.1 9.75693C15.5 9.75693 18 10.9569 19.6 12.8569V0.356934H27.2ZM19.6 23.0569C19.6 19.2569 17.1 16.8569 13.6 16.8569C10.1 16.8569 7.6 19.2569 7.6 23.0569C7.6 26.8569 10.1 29.2569 13.6 29.2569C17.1 29.1569 19.6 26.8569 19.6 23.0569Z" fill="black"/>
<path d="M43.7001 29.5568C45.8001 29.5568 47.5001 28.7568 48.5001 27.6568L54.6001 31.1568C52.1001 34.5568 48.4001 36.3568 43.6001 36.3568C35.0001 36.3568 29.6001 30.5568 29.6001 23.0568C29.6001 15.5568 35.0001 9.75684 43.0001 9.75684C50.4001 9.75684 55.8001 15.4568 55.8001 23.0568C55.8001 24.1568 55.7001 25.1568 55.5001 26.0568H37.6001C38.6001 28.6568 40.9001 29.5568 43.7001 29.5568ZM48.3001 20.4568C47.5001 17.5568 45.2001 16.4568 42.9001 16.4568C40.0001 16.4568 38.1001 17.8568 37.4001 20.4568H48.3001Z" fill="black"/>
<path d="M82.0999 10.457L72.7999 35.657H64.1999L54.8999 10.457H63.2999L68.5999 26.457L73.8999 10.457C73.8999 10.457 82.0999 10.457 82.0999 10.457Z" fill="black"/>
<path d="M83.3999 10.457H90.9999V35.657H83.3999V10.457Z" fill="black"/>
<path d="M93.6001 23.0568C93.6001 15.5568 99.3001 9.75684 107 9.75684C111.9 9.75684 116.2 12.3568 118.4 16.2568L111.8 20.0568C110.9 18.2568 109.1 17.2568 106.9 17.2568C103.6 17.2568 101.2 19.6568 101.2 23.0568C101.2 26.5568 103.6 28.8568 106.9 28.8568C109.1 28.8568 111 27.7568 111.8 26.0568L118.4 29.8568C116.3 33.7568 112 36.3568 107 36.3568C99.3001 36.3568 93.6001 30.5568 93.6001 23.0568Z" fill="black"/>
<path d="M132.8 29.5568C134.9 29.5568 136.6 28.7568 137.6 27.6568L143.7 31.1568C141.2 34.5568 137.5 36.3568 132.7 36.3568C124.1 36.3568 118.7 30.5568 118.7 23.0568C118.7 15.5568 124.2 9.75684 132.1 9.75684C139.5 9.75684 144.9 15.4568 144.9 23.0568C144.9 24.1568 144.8 25.1568 144.6 26.0568H126.7C127.7 28.6568 130 29.5568 132.8 29.5568ZM137.5 20.4568C136.7 17.5568 134.4 16.4568 132.1 16.4568C129.2 16.4568 127.3 17.8568 126.6 20.4568H137.5Z" fill="black"/>
<path d="M83.3999 0.356934V10.4569L90.9999 0.356934H83.3999Z" fill="#510094"/>
</g>
<defs>
<clipPath id="clip0_24_616">
<rect width="145" height="36" fill="white" transform="translate(0 0.356934)"/>
</clipPath>
</defs>
</svg>

<svg width="145" height="37" fill="none" xmlns="http://www.w3.org/2000/svg"><g clip-path="url(#a)"><path d="M27.2.36v35.3h-7.6v-2.4c-1.7 1.9-4.1 3.1-7.5 3.1-6.6 0-12.1-5.8-12.1-13.3 0-7.5 5.5-13.3 12.1-13.3 3.4 0 5.9 1.2 7.5 3.1V.36h7.6Zm-7.6 22.7c0-3.8-2.5-6.2-6-6.2s-6 2.4-6 6.2c0 3.8 2.5 6.2 6 6.2 3.5-.1 6-2.4 6-6.2Zm24.1 6.5c2.1 0 3.8-.8 4.8-1.9l6.1 3.5c-2.5 3.4-6.2 5.2-11 5.2-8.6 0-14-5.8-14-13.3 0-7.5 5.4-13.3 13.4-13.3 7.4 0 12.8 5.7 12.8 13.3 0 1.1-.1 2.1-.3 3H37.6c1 2.6 3.3 3.5 6.1 3.5Zm4.6-9.1c-.8-2.9-3.1-4-5.4-4-2.9 0-4.8 1.4-5.5 4h10.9Zm33.8-10-9.3 25.2h-8.6l-9.3-25.2h8.4l5.3 16 5.3-16h8.2Zm1.3 0H91v25.2h-7.6v-25.2Zm10.2 12.6c0-7.5 5.7-13.3 13.4-13.3 4.9 0 9.2 2.6 11.4 6.5l-6.6 3.8c-.9-1.8-2.7-2.8-4.9-2.8-3.3 0-5.7 2.4-5.7 5.8 0 3.5 2.4 5.8 5.7 5.8 2.2 0 4.1-1.1 4.9-2.8l6.6 3.8c-2.1 3.9-6.4 6.5-11.4 6.5-7.7 0-13.4-5.8-13.4-13.3Zm39.2 6.5c2.1 0 3.8-.8 4.8-1.9l6.1 3.5c-2.5 3.4-6.2 5.2-11 5.2-8.6 0-14-5.8-14-13.3 0-7.5 5.5-13.3 13.4-13.3 7.4 0 12.8 5.7 12.8 13.3 0 1.1-.1 2.1-.3 3h-17.9c1 2.6 3.3 3.5 6.1 3.5Zm4.7-9.1c-.8-2.9-3.1-4-5.4-4-2.9 0-4.8 1.4-5.5 4h10.9Z" fill="#000"/><path d="M83.4.36v10.1L91 .36h-7.6Z" fill="#510094"/></g><defs><clipPath id="a"><path fill="#fff" transform="translate(0 .36)" d="M0 0h145v36H0z"/></clipPath></defs></svg>
